outputs/icons/audio_video/microphone_outline_sharp.svg

<svg xmlns="http://www.w3.org/2000/svg" width="1200" height="1200" fill="none"><g clip-path="url(#a)"><path fill="#000" d="M600 700c83 0 150-67 150-150V250c0-83-67-150-150-150s-150 67-150 150v300c0 83 67 150 150 150m-50-450c0-27.5 22.5-50 50-50s50 22.5 50 50v300c0 27.5-22.5 50-50 50s-50-22.5-50-50zm300 300c0 138-112 250-250 250S350 688 350 550H250c0 176.5 130.5 321.5 300 346v154h100V896c169.5-24.5 300-169.5 300-346z"/></g><defs><clipPath id="a"><path fill="#fff" d="M0 0h1200v1200H0z"/></clipPath></defs></svg>

<svg width="1200" height="1200" viewBox="0 0 1200 1200" fill="none" xmlns="http://www.w3.org/2000/svg"><g clip-path="url(#clip0_124_1166)"><path d="M600 700C683 700 750 633 750 550V250C750 167 683 100 600 100C517 100 450 167 450 250V550C450 633 517 700 600 700ZM550 250C550 222.5 572.5 200 600 200C627.5 200 650 222.5 650 250V550C650 577.5 627.5 600 600 600C572.5 600 550 577.5 550 550V250ZM850 550C850 688 738 800 600 800C462 800 350 688 350 550H250C250 726.5 380.5 871.5 550 896V1050H650V896C819.5 871.5 950 726.5 950 550H850Z" fill="#1D1E23"/></g><defs><clipPath id="clip0_124_1166"><path width="24" fill="white" d="M0 0H1200V1200H0V0z"/></clipPath></defs></svg>
